X: 6
T: The Morpeth Rant
R: reel
M: 4/4
L: 1/8
K: Dmaj
|:ABc|d2AG FDFA|BGBd cAce|f3d gfed|c2e2 A2 (3ABc|
d2AG FDFA|BGBd cAce|f3d gfec|A2d2 d3:|
|:A|dfaf dfaf|gfef g2ef|gfed cdeg|fefg f3A|
dfaf dfaf|gfef g2ef|gfed caag|f2 d2 d3:|


Tune 1310	Setting 14643

